X:225
T:Coleman's March
M:C|
R:March
K:D
|"D"F8|"G/D"G6FG|"D"A2AB AFD2|"A"E6FG|
|"D"A2d2"A"c4|"G"B2BA "D"FED2|"Em"E2EF "A7"GFE2|1"D"D4ABAG:|2"D"D4DFAc||
|:"D"d8|"A"c8|"G"B2Bc dcB2 |"D"A6 FG|
|"D"A2d2c4|"G"B2 BA "D"FED2|"Em"E2EF "A7"GFE2|1"D"D4DFAc:|2"D"D2z2A2G2||
